X:145 
T:Musical Mulvihills* (reel), The
F:file ID: cre.5/145mus_m
B:CRE5.134 (gan ainm)
N:I christened this otherwise nameless tune for the great 
New York area musical family of a past generation. 
M:4/4
Q:180
R:reel
K:G
B|G2BG DGBd|gedc BGdB|A2cA EAcA|FGAB cAFA|
G2BG DGBd|gedc BGdB|ABcd efga|1 bgaf ged:|\
[2 bgaf gfe||
|:f|g2ga gfef|gedc BGGF|EAAB cBAG|FGAB cAFA|
G2GB AGAc|Bdge dBGF|GBdB cAFG|1 AGGF G2d:|\
[2 AGGF G4-|G8|]


%%%

